icons/circle/48/google2ubuntu.svg

<svg version="1.1" viewBox="0 0 48 48" xmlns="http://www.w3.org/2000/svg" xmlns:xlink="http://www.w3.org/1999/xlink">
 <defs>
  <linearGradient id="linearGradient872" x2="0" y1="47" y2="1" gradientUnits="userSpaceOnUse">
   <stop style="stop-color:#b6b6b6" offset="0"/>
   <stop style="stop-color:#c0c0c0" offset="1"/>
  </linearGradient>
 </defs>
 <path d="m36.31 5c5.859 4.062 9.688 10.831 9.688 18.5 0 12.426-10.07 22.5-22.5 22.5-7.669 0-14.438-3.828-18.5-9.688 1.037 1.822 2.306 3.499 3.781 4.969 4.085 3.712 9.514 5.969 15.469 5.969 12.703 0 23-10.298 23-23 0-5.954-2.256-11.384-5.969-15.469-1.469-1.475-3.147-2.744-4.969-3.781zm4.969 3.781c3.854 4.113 6.219 9.637 6.219 15.719 0 12.703-10.297 23-23 23-6.081 0-11.606-2.364-15.719-6.219 4.16 4.144 9.883 6.719 16.219 6.719 12.703 0 23-10.298 23-23 0-6.335-2.575-12.06-6.719-16.219z" style="opacity:.05"/>
 <path d="m41.28 8.781c3.712 4.085 5.969 9.514 5.969 15.469 0 12.703-10.297 23-23 23-5.954 0-11.384-2.256-15.469-5.969 4.113 3.854 9.637 6.219 15.719 6.219 12.703 0 23-10.298 23-23 0-6.081-2.364-11.606-6.219-15.719z" style="opacity:.1"/>
 <path d="m31.25 2.375c8.615 3.154 14.75 11.417 14.75 21.13 0 12.426-10.07 22.5-22.5 22.5-9.708 0-17.971-6.135-21.12-14.75a23 23 0 0 0 44.875 -7 23 23 0 0 0 -16 -21.875z" style="opacity:.2"/>
 <g style="fill:#b6b6b6">
  <path d="m24 1c12.703 0 23 10.297 23 23s-10.297 23-23 23-23-10.297-23-23 10.297-23 23-23z" style="fill:url(#linearGradient872)"/>
 </g>
 <g transform="translate(1,1)">
  <g style="opacity:.1">
   <path d="m9 24.01v-4e-3c0-8.281 6.715-14.996 15-14.996h4e-3c8.281 0 14.996 6.715 14.996 14.996v4e-3c0 8.285-6.715 15-14.996 15h-4e-3c-8.285 0-15-6.715-15-15" style="fill-rule:evenodd"/>
  </g>
 </g>
 <path d="m9 24.01v-4e-3c0-8.281 6.715-14.996 15-14.996h4e-3c8.281 0 14.996 6.715 14.996 14.996v4e-3c0 8.285-6.715 15-14.996 15h-4e-3c-8.285 0-15-6.715-15-15" style="fill-rule:evenodd;fill:#2f2f2f"/>
 <path d="m40.03 7.531c3.712 4.084 5.969 9.514 5.969 15.469 0 12.703-10.297 23-23 23-5.954 0-11.384-2.256-15.469-5.969 4.178 4.291 10.01 6.969 16.469 6.969 12.703 0 23-10.298 23-23 0-6.462-2.677-12.291-6.969-16.469z" style="opacity:.1"/>
 <path d="m16 23a8 8 0 0 0 7 7.928v2.072h-2v2h6v-2h-2v-2.07a8 8 0 0 0 7 -7.93h-2a6 6 0 0 1 -6 6 6 6 0 0 1 -6 -6h-2z" style="fill:#f9f9f9"/>
 <rect x="20" y="14" width="8" height="14" rx="4" style="fill:#f9f9f9"/>
</svg>

<svg viewBox="0 0 48 48" xmlns="http://www.w3.org/2000/svg">
  <defs>
    <linearGradient id="a" x2="0" y1="47" y2="1" gradientUnits="userSpaceOnUse">
      <stop offset="0" stop-color="#b6b6b6"/>
      <stop offset="1" stop-color="silver"/>
    </linearGradient>
  </defs>
  <path d="M36.31 5c5.859 4.062 9.688 10.831 9.688 18.5 0 12.426-10.07 22.5-22.5 22.5-7.669 0-14.438-3.828-18.5-9.688a23.24 23.24 0 0 0 3.781 4.969 22.923 22.923 0 0 0 15.469 5.969c12.703 0 23-10.298 23-23a22.92 22.92 0 0 0-5.969-15.469A23.216 23.216 0 0 0 36.31 5zm4.969 3.781A22.911 22.911 0 0 1 47.498 24.5c0 12.703-10.297 23-23 23a22.909 22.909 0 0 1-15.719-6.219C12.939 45.425 18.662 48 24.998 48c12.703 0 23-10.298 23-23 0-6.335-2.575-12.06-6.719-16.219z" opacity=".05"/>
  <path d="M41.28 8.781a22.923 22.923 0 0 1 5.969 15.469c0 12.703-10.297 23-23 23A22.92 22.92 0 0 1 8.78 41.281 22.911 22.911 0 0 0 24.499 47.5c12.703 0 23-10.298 23-23A22.909 22.909 0 0 0 41.28 8.781z" opacity=".1"/>
  <path d="M31.25 2.375C39.865 5.529 46 13.792 46 23.505c0 12.426-10.07 22.5-22.5 22.5-9.708 0-17.971-6.135-21.12-14.75a23 23 0 0 0 44.875-7 23 23 0 0 0-16-21.875z" opacity=".2"/>
  <path d="M24 1c12.703 0 23 10.297 23 23S36.703 47 24 47 1 36.703 1 24 11.297 1 24 1z" fill="url(#a)"/>
  <path d="M10 25.01v-.004c0-8.281 6.715-14.996 15-14.996h.004C33.285 10.01 40 16.725 40 25.006v.004c0 8.285-6.715 15-14.996 15H25c-8.285 0-15-6.715-15-15" fill-rule="evenodd" opacity=".1"/>
  <path d="M9 24.01v-.004C9 15.725 15.715 9.01 24 9.01h.004C32.285 9.01 39 15.725 39 24.006v.004c0 8.285-6.715 15-14.996 15H24c-8.285 0-15-6.715-15-15" fill-rule="evenodd" fill="#2f2f2f"/>
  <path d="M40.03 7.531A22.922 22.922 0 0 1 45.999 23c0 12.703-10.297 23-23 23A22.92 22.92 0 0 1 7.53 40.031C11.708 44.322 17.54 47 23.999 47c12.703 0 23-10.298 23-23 0-6.462-2.677-12.291-6.969-16.469z" opacity=".1"/>
  <path d="M16 23a8 8 0 0 0 7 7.928V33h-2v2h6v-2h-2v-2.07A8 8 0 0 0 32 23h-2a6 6 0 0 1-6 6 6 6 0 0 1-6-6h-2z" fill="#f9f9f9"/>
  <rect x="20" y="14" width="8" height="14" rx="4" fill="#f9f9f9"/>
</svg>
